; G-Code generated by Simplify3D(R) Version 3.0.0
; oct. 22, 2016 at 10:50:27 
; Settings Summary
;   processName,Process1
;   applyToModels,X-Tensor
;   profileName,P3Steel 300x200
;   profileVersion,2016-10-22 10:45:31
;   baseProfile,Default
;   printMaterial,PLA
;   printQuality,Medium
;   printExtruders,
;   extruderName,Primary Extruder
;   extruderToolheadNumber,0
;   extruderDiameter,0.4
;   extruderAutoWidth,1
;   extruderWidth,0.48
;   extrusionMultiplier,0.95
;   extruderUseRetract,1
;   extruderRetractionDistance,2.1
;   extruderExtraRestartDistance,0
;   extruderRetractionZLift,0
;   extruderRetractionSpeed,4200
;   extruderUseCoasting,0
;   extruderCoastingDistance,0.2
;   extruderUseWipe,0
;   extruderWipeDistance,5
;   primaryExtruder,0
;   layerHeight,0.18
;   topSolidLayers,3
;   bottomSolidLayers,3
;   perimeterOutlines,2
;   printPerimetersInsideOut,1
;   startPointOption,2
;   startPointOriginX,0
;   startPointOriginY,0
;   startPointOriginZ,300
;   sequentialIslands,0
;   spiralVaseMode,0
;   firstLayerHeightPercentage,90
;   firstLayerWidthPercentage,100
;   firstLayerUnderspeed,0.5
;   useRaft,0
;   raftExtruder,0
;   raftLayers,3
;   raftOffset,3
;   raftSeparationDistance,0.14
;   raftInfill,85
;   disableRaftBaseLayers,0
;   useSkirt,1
;   skirtExtruder,0
;   skirtLayers,1
;   skirtOutlines,2
;   skirtOffset,6
;   usePrimePillar,0
;   primePillarExtruder,999
;   primePillarWidth,12
;   primePillarLocation,7
;   primePillarSpeedMultiplier,1
;   useOozeShield,0
;   oozeShieldExtruder,999
;   oozeShieldOffset,2
;   oozeShieldOutlines,1
;   oozeShieldSidewallShape,1
;   oozeShieldSidewallAngle,30
;   oozeShieldSpeedMultiplier,1
;   infillExtruder,0
;   internalInfillPattern,Rectilinear
;   externalInfillPattern,Rectilinear
;   infillPercentage,60
;   outlineOverlapPercentage,15
;   infillExtrusionWidthPercentage,100
;   minInfillLength,3
;   infillLayerInterval,1
;   infillAngles,45,-45
;   overlapInfillAngles,0
;   generateSupport,0
;   supportExtruder,0
;   supportInfillPercentage,30
;   supportExtraInflation,0
;   denseSupportLayers,0
;   denseSupportInfillPercentage,70
;   supportLayerInterval,1
;   supportHorizontalPartOffset,0.3
;   supportUpperSeparationLayers,1
;   supportLowerSeparationLayers,1
;   supportType,0
;   supportGridSpacing,4
;   maxOverhangAngle,45
;   supportAngles,0
;   temperatureName,Primary Extruder,Heated Bed
;   temperatureNumber,0,1
;   temperatureSetpointCount,1,1
;   temperatureSetpointLayers,1,1
;   temperatureSetpointTemperatures,205,50
;   temperatureStabilizeAtStartup,1,1
;   temperatureHeatedBed,0,1
;   temperatureRelayBetweenLayers,0,0
;   temperatureRelayBetweenLoops,0,0
;   fanLayers,1,2
;   fanSpeeds,0,100
;   blipFanToFullPower,0
;   adjustSpeedForCooling,1
;   minSpeedLayerTime,15
;   minCoolingSpeedSlowdown,20
;   increaseFanForCooling,0
;   minFanLayerTime,45
;   maxCoolingFanSpeed,100
;   increaseFanForBridging,0
;   bridgingFanSpeed,100
;   use5D,1
;   relativeEdistances,0
;   allowEaxisZeroing,1
;   independentExtruderAxes,0
;   includeM10123,0
;   stickySupport,1
;   applyToolheadOffsets,0
;   gcodeXoffset,0
;   gcodeYoffset,0
;   gcodeZoffset,0
;   overrideMachineDefinition,1
;   machineTypeOverride,0
;   strokeXoverride,195
;   strokeYoverride,280
;   strokeZoverride,165
;   originOffsetXoverride,0
;   originOffsetYoverride,0
;   originOffsetZoverride,0
;   homeXdirOverride,-1
;   homeYdirOverride,-1
;   homeZdirOverride,-1
;   flipXoverride,1
;   flipYoverride,-1
;   flipZoverride,1
;   toolheadOffsets,0,0|0,0|0,0|0,0|0,0|0,0
;   overrideFirmwareConfiguration,0
;   firmwareTypeOverride,RepRap (Marlin/Repetier/Sprinter)
;   GPXconfigOverride,r2
;   baudRateOverride,115200
;   overridePrinterModels,0
;   printerModelsOverride
;   startingGcode,G28 ; home all axes
;   layerChangeGcode,
;   retractionGcode,
;   toolChangeGcode,
;   endingGcode,G28 Y0 X0 ,M104 S0 ; turn off extruder,M140 S0 ; turn off bed,M84 ; disable motors,M107 ; turn off fan
;   createX3G,0
;   celebration,0
;   celebrationSong,Random Song
;   createMB5G,0
;   postProcessing,
;   defaultSpeed,3900
;   outlineUnderspeed,0.7
;   solidInfillUnderspeed,0.8
;   supportUnderspeed,0.8
;   rapidXYspeed,4200
;   rapidZspeed,900
;   minBridgingArea,50
;   bridgingExtraInflation,0
;   bridgingExtrusionMultiplier,1
;   bridgingSpeedMultiplier,1
;   filamentDiameter,1.75
;   filamentPricePerKg,16
;   filamentDensity,1.25
;   useMinPrintHeight,0
;   minPrintHeight,0
;   useMaxPrintHeight,0
;   maxPrintHeight,0
;   useDiaphragm,0
;   diaphragmLayerInterval,20
;   robustSlicing,1
;   mergeAllIntoSolid,0
;   onlyRetractWhenCrossingOutline,1
;   retractBetweenLayers,1
;   useRetractionMinTravel,0
;   retractionMinTravel,3
;   retractWhileWiping,0
;   onlyWipeOutlines,1
;   avoidCrossingOutline,0
;   maxMovementDetourFactor,3
;   toolChangeRetractionDistance,12
;   toolChangeExtraRestartDistance,-0.5
;   toolChangeRetractionSpeed,600
;   allowThinWallGapFill,1
;   thinWallAllowedOverlapPercentage,10
;   horizontalSizeCompensation,0
G90
M82
M106 S0
M140 S50
M190 S50
M104 S205 T0
M109 S205 T0
G28 ; home all axes
G92 E0
G1 E-2.1000 F4200
G1 Z0.162 F900
; layer 1, Z = 0.162
T0
; tool H0.180 W0.480
; skirt
G1 X80.607 Y123.890 F4200
G1 E0.0000 F1260
G92 E0
G1 X80.871 Y123.780 E0.0098 F1950
G1 X114.129 Y123.780 E1.1447
G1 X114.393 Y123.890 E1.1544
G1 X118.110 Y127.607 E1.3338
G1 X118.220 Y127.871 E1.3436
G1 X118.220 Y152.128 E2.1714
G1 X118.110 Y152.393 E2.1812
G1 X114.393 Y156.110 E2.3605
G1 X114.129 Y156.220 E2.3703
G1 X80.871 Y156.220 E3.5052
G1 X80.607 Y156.110 E3.5150
G1 X76.890 Y152.393 E3.6944
G1 X76.780 Y152.128 E3.7042
G1 X76.780 Y127.871 E4.5319
G1 X76.890 Y127.607 E4.5417
G1 X80.607 Y123.890 E4.7211
G1 X80.879 Y124.297 F4200
G92 E0
G1 X80.967 Y124.260 E0.0033 F1950
G1 X114.033 Y124.260 E1.1316
G1 X114.121 Y124.297 E1.1349
G1 X117.703 Y127.879 E1.3078
G1 X117.740 Y127.967 E1.3110
G1 X117.740 Y152.033 E2.1323
G1 X117.703 Y152.121 E2.1355
G1 X114.121 Y155.703 E2.3084
G1 X114.033 Y155.740 E2.3117
G1 X80.967 Y155.740 E3.4400
G1 X80.879 Y155.703 E3.4433
G1 X77.297 Y152.121 E3.6162
G1 X77.260 Y152.033 E3.6194
G1 X77.260 Y127.967 E4.4407
G1 X77.297 Y127.879 E4.4440
G1 X80.879 Y124.297 E4.6168
G92 E0
G1 E-2.1000 F4200
; inner perimeter
G1 X84.220 Y131.220 F4200
G1 E0.0000 F4200
G92 E0
G1 X110.780 Y131.220 E0.9064 F1657
G1 X110.780 Y148.780 E1.5056
G1 X84.220 Y148.780 E2.4119
G1 X84.220 Y131.220 E3.0112
; outer perimeter
G1 X83.740 Y130.740 F4200
G92 E0
G1 X111.260 Y130.740 E0.9391 F1365
G1 X111.260 Y149.260 E1.5711
G1 X83.740 Y149.260 E2.5102
G1 X83.740 Y130.740 E3.1422
; inner perimeter
G1 X87.280 Y133.280 F4200
G92 E0
G1 X87.280 Y146.720 E0.4586 F1657
G1 X107.720 Y146.720 E1.1562
G1 X107.720 Y133.280 E1.6148
G1 X87.280 Y133.280 E2.3123
; outer perimeter
G1 X87.760 Y133.760 F4200
G92 E0
G1 X87.760 Y146.240 E0.4259 F1365
G1 X107.240 Y146.240 E1.0906
G1 X107.240 Y133.760 E1.5165
G1 X87.760 Y133.760 E2.1813
; solid layer
G1 X87.657 Y132.872 F4200
G92 E0
G1 X88.901 Y131.628 E0.0600 F1560
G1 X89.580 Y131.628 E0.0832
G1 X88.336 Y132.872 E0.1432
G1 X89.015 Y132.872 E0.1664
G1 X90.259 Y131.628 E0.2264
G1 X90.938 Y131.628 E0.2496
G1 X89.694 Y132.872 E0.3096
G1 X90.373 Y132.872 E0.3328
G1 X91.617 Y131.628 E0.3928
G1 X92.296 Y131.628 E0.4160
G1 X91.052 Y132.872 E0.4760
G1 X91.730 Y132.872 E0.4992
G1 X92.974 Y131.628 E0.5592
G1 X93.653 Y131.628 E0.5824
G1 X92.409 Y132.872 E0.6424
G1 X93.088 Y132.872 E0.6656
G1 X94.332 Y131.628 E0.7256
G1 X95.011 Y131.628 E0.7488
G1 X93.767 Y132.872 E0.8088
G1 X94.446 Y132.872 E0.8320
G1 X95.690 Y131.628 E0.8920
G1 X96.369 Y131.628 E0.9152
G1 X95.125 Y132.872 E0.9752
G1 X95.803 Y132.872 E0.9984
G1 X97.047 Y131.628 E1.0584
G1 X97.726 Y131.628 E1.0816
G1 X96.482 Y132.872 E1.1416
G1 X97.161 Y132.872 E1.1648
G1 X98.405 Y131.628 E1.2248
G1 X99.084 Y131.628 E1.2480
G1 X97.840 Y132.872 E1.3080
G1 X98.519 Y132.872 E1.3312
G1 X99.763 Y131.628 E1.3912
G1 X100.441 Y131.628 E1.4144
G1 X99.197 Y132.872 E1.4744
G1 X99.876 Y132.872 E1.4976
G1 X101.120 Y131.628 E1.5576
G1 X101.799 Y131.628 E1.5808
G1 X100.555 Y132.872 E1.6408
G1 X101.234 Y132.872 E1.6640
G1 X102.478 Y131.628 E1.7240
G1 X103.157 Y131.628 E1.7472
G1 X101.913 Y132.872 E1.8072
G1 X102.592 Y132.872 E1.8304
G1 X103.836 Y131.628 E1.8904
G1 X104.514 Y131.628 E1.9136
G1 X103.270 Y132.872 E1.9736
G1 X103.949 Y132.872 E1.9968
G1 X105.193 Y131.628 E2.0568
G1 X105.872 Y131.628 E2.0800
G1 X104.628 Y132.872 E2.1400
G1 X105.307 Y132.872 E2.1632
G1 X106.551 Y131.628 E2.2232
G1 X107.230 Y131.628 E2.2464
G1 X105.986 Y132.872 E2.3064
G1 X106.664 Y132.872 E2.3296
G1 X107.908 Y131.628 E2.3896
G1 X108.587 Y131.628 E2.4128
G1 X107.343 Y132.872 E2.4728
G1 X108.022 Y132.872 E2.4960
G1 X109.266 Y131.628 E2.5560
G1 X109.945 Y131.628 E2.5792
G1 X108.128 Y133.445 E2.6669
G1 X108.128 Y134.124 E2.6901
G1 X110.372 Y131.880 E2.7983
G1 X110.372 Y132.559 E2.8215
G1 X108.128 Y134.803 E2.9298
G1 X108.128 Y135.481 E2.9530
G1 X110.372 Y133.237 E3.0613
G1 X110.372 Y133.916 E3.0844
G1 X108.128 Y136.160 E3.1927
G1 X108.128 Y136.839 E3.2159
G1 X110.372 Y134.595 E3.3242
G1 X110.372 Y135.274 E3.3474
G1 X108.128 Y137.518 E3.4556
G1 X108.128 Y138.197 E3.4788
G1 X110.372 Y135.953 E3.5871
G1 X110.372 Y136.632 E3.6103
G1 X108.128 Y138.876 E3.7186
G1 X108.128 Y139.554 E3.7417
G1 X110.372 Y137.310 E3.8500
G1 X110.372 Y137.989 E3.8732
G1 X108.128 Y140.233 E3.9815
G1 X108.128 Y140.912 E4.0047
G1 X110.372 Y138.668 E4.1129
G1 X110.372 Y139.347 E4.1361
G1 X108.128 Y141.591 E4.2444
G1 X108.128 Y142.270 E4.2676
G1 X110.372 Y140.026 E4.3759
G1 X110.372 Y140.704 E4.3990
G1 X108.128 Y142.948 E4.5073
G1 X108.128 Y143.627 E4.5305
G1 X110.372 Y141.383 E4.6388
G1 X110.372 Y142.062 E4.6620
G1 X108.128 Y144.306 E4.7702
G1 X108.128 Y144.985 E4.7934
G1 X110.372 Y142.741 E4.9017
G1 X110.372 Y143.420 E4.9249
G1 X108.128 Y145.664 E5.0332
G1 X108.128 Y146.343 E5.0563
G1 X110.372 Y144.099 E5.1646
G1 X110.372 Y144.777 E5.1878
G1 X108.128 Y147.021 E5.2961
G1 X110.372 Y148.172 F4200
G92 E0
G1 X110.172 Y148.372 E0.0097 F1560
G1 X109.493 Y148.372 E0.0328
G1 X110.372 Y147.493 E0.0753
G1 X110.372 Y146.814 E0.0984
G1 X108.814 Y148.372 E0.1736
G1 X108.135 Y148.372 E0.1968
G1 X110.372 Y146.135 E0.3048
G1 X110.372 Y145.456 E0.3279
G1 X107.456 Y148.372 E0.4686
G1 X106.777 Y148.372 E0.4918
G1 X108.021 Y147.128 E0.5518
G1 X107.343 Y147.128 E0.5750
G1 X106.099 Y148.372 E0.6350
G1 X105.420 Y148.372 E0.6582
G1 X106.664 Y147.128 E0.7182
G1 X105.985 Y147.128 E0.7414
G1 X104.741 Y148.372 E0.8014
G1 X104.062 Y148.372 E0.8246
G1 X105.306 Y147.128 E0.8846
G1 X104.627 Y147.128 E0.9078
G1 X103.383 Y148.372 E0.9678
G1 X102.704 Y148.372 E0.9910
G1 X103.948 Y147.128 E1.0510
G1 X103.270 Y147.128 E1.0742
G1 X102.026 Y148.372 E1.1342
G1 X101.347 Y148.372 E1.1574
G1 X102.591 Y147.128 E1.2174
G1 X101.912 Y147.128 E1.2406
G1 X100.668 Y148.372 E1.3006
G1 X99.989 Y148.372 E1.3238
G1 X101.233 Y147.128 E1.3838
G1 X100.554 Y147.128 E1.4070
G1 X99.310 Y148.372 E1.4670
G1 X98.632 Y148.372 E1.4902
G1 X99.876 Y147.128 E1.5502
G1 X99.197 Y147.128 E1.5734
G1 X97.953 Y148.372 E1.6334
G1 X97.274 Y148.372 E1.6566
G1 X98.518 Y147.128 E1.7166
G1 X97.839 Y147.128 E1.7398
G1 X96.595 Y148.372 E1.7998
G1 X95.916 Y148.372 E1.8230
G1 X97.160 Y147.128 E1.8830
G1 X96.481 Y147.128 E1.9062
G1 X95.237 Y148.372 E1.9662
G1 X94.559 Y148.372 E1.9894
G1 X95.803 Y147.128 E2.0494
G1 X95.124 Y147.128 E2.0726
G1 X93.880 Y148.372 E2.1326
G1 X93.201 Y148.372 E2.1558
G1 X94.445 Y147.128 E2.2158
G1 X93.766 Y147.128 E2.2390
G1 X92.522 Y148.372 E2.2990
G1 X91.843 Y148.372 E2.3222
G1 X93.087 Y147.128 E2.3822
G1 X92.408 Y147.128 E2.4054
G1 X91.164 Y148.372 E2.4654
G1 X90.486 Y148.372 E2.4886
G1 X91.730 Y147.128 E2.5486
G1 X91.051 Y147.128 E2.5718
G1 X89.807 Y148.372 E2.6318
G1 X89.128 Y148.372 E2.6550
G1 X90.372 Y147.128 E2.7150
G1 X89.693 Y147.128 E2.7382
G1 X88.449 Y148.372 E2.7982
G1 X87.770 Y148.372 E2.8214
G1 X89.014 Y147.128 E2.8814
G1 X88.336 Y147.128 E2.9046
G1 X87.092 Y148.372 E2.9646
G1 X86.413 Y148.372 E2.9878
G1 X87.657 Y147.128 E3.0478
G1 X86.978 Y147.128 E3.0710
G1 X85.734 Y148.372 E3.1310
G1 X85.055 Y148.372 E3.1542
G1 X86.872 Y146.555 E3.2419
G1 X86.872 Y145.876 E3.2650
G1 X84.628 Y148.120 E3.3733
G1 X84.628 Y147.441 E3.3965
G1 X86.872 Y145.197 E3.5048
G1 X86.872 Y144.519 E3.5280
G1 X84.628 Y146.763 E3.6363
G1 X84.628 Y146.084 E3.6594
G1 X86.872 Y143.840 E3.7677
G1 X86.872 Y143.161 E3.7909
G1 X84.628 Y145.405 E3.8992
G1 X84.628 Y144.726 E3.9223
G1 X86.872 Y142.482 E4.0306
G1 X86.872 Y141.803 E4.0538
G1 X84.628 Y144.047 E4.1621
G1 X84.628 Y143.369 E4.1853
G1 X86.872 Y141.125 E4.2936
G1 X86.872 Y140.446 E4.3167
G1 X84.628 Y142.690 E4.4250
G1 X84.628 Y142.011 E4.4482
G1 X86.872 Y139.767 E4.5565
G1 X86.872 Y139.088 E4.5796
G1 X84.628 Y141.332 E4.6879
G1 X84.628 Y140.653 E4.7111
G1 X86.872 Y138.409 E4.8194
G1 X86.872 Y137.730 E4.8426
G1 X84.628 Y139.974 E4.9509
G1 X84.628 Y139.296 E4.9740
G1 X86.872 Y137.052 E5.0823
G1 X86.872 Y136.373 E5.1055
G1 X84.628 Y138.617 E5.2138
G1 X84.628 Y137.938 E5.2369
G1 X86.872 Y135.694 E5.3452
G1 X86.872 Y135.015 E5.3684
G1 X84.628 Y137.259 E5.4767
G1 X84.628 Y136.580 E5.4999
G1 X86.872 Y134.336 E5.6082
G1 X86.872 Y133.657 E5.6313
G1 X84.628 Y135.901 E5.7396
G1 X84.628 Y135.223 E5.7628
G1 X86.872 Y132.979 E5.8711
G1 X86.872 Y132.872 E5.8747
G1 X86.979 Y132.872 E5.8784
G1 X88.223 Y131.628 E5.9384
G1 X87.544 Y131.628 E5.9616
G1 X84.628 Y134.544 E6.1023
G1 X84.628 Y133.865 E6.1254
G1 X86.865 Y131.628 E6.2334
G1 X86.186 Y131.628 E6.2566
G1 X84.628 Y133.186 E6.3318
G1 X84.628 Y132.507 E6.3549
G1 X85.507 Y131.628 E6.3974
G1 X84.829 Y131.628 E6.4205
G1 X84.628 Y131.829 E6.4302
G92 E0
G1 E-2.1000 F4200
; layer 2, Z = 0.342
M106 S255
; inner perimeter
G1 X84.220 Y131.220 F4200
G1 Z0.342 F900
G1 E0.0000 F4200
G92 E0
G1 X110.780 Y131.220 E0.9064 F2842
G1 X110.780 Y148.780 E1.5056
G1 X84.220 Y148.780 E2.4119
G1 X84.220 Y131.220 E3.0112
; outer perimeter
G1 X83.740 Y130.740 F4200
G92 E0
G1 X111.260 Y130.740 E0.9391 F2341
G1 X111.260 Y149.260 E1.5711
G1 X83.740 Y149.260 E2.5102
G1 X83.740 Y130.740 E3.1422
; inner perimeter
G1 X87.280 Y133.280 F4200
G92 E0
G1 X87.280 Y146.720 E0.4586 F2842
G1 X107.720 Y146.720 E1.1562
G1 X107.720 Y133.280 E1.6148
G1 X87.280 Y133.280 E2.3123
; outer perimeter
G1 X87.760 Y133.760 F4200
G92 E0
G1 X87.760 Y146.240 E0.4259 F2341
G1 X107.240 Y146.240 E1.0906
G1 X107.240 Y133.760 E1.5165
G1 X87.760 Y133.760 E2.1813
; solid layer
G1 X86.979 Y147.128 F4200
G92 E0
G1 X88.223 Y148.372 E0.0600 F2675
G1 X88.901 Y148.372 E0.0832
G1 X87.657 Y147.128 E0.1432
G1 X88.336 Y147.128 E0.1664
G1 X89.580 Y148.372 E0.2264
G1 X90.259 Y148.372 E0.2496
G1 X89.015 Y147.128 E0.3096
G1 X89.694 Y147.128 E0.3328
G1 X90.938 Y148.372 E0.3928
G1 X91.617 Y148.372 E0.4160
G1 X90.373 Y147.128 E0.4760
G1 X91.052 Y147.128 E0.4992
G1 X92.296 Y148.372 E0.5592
G1 X92.974 Y148.372 E0.5824
G1 X91.730 Y147.128 E0.6424
G1 X92.409 Y147.128 E0.6656
G1 X93.653 Y148.372 E0.7256
G1 X94.332 Y148.372 E0.7488
G1 X93.088 Y147.128 E0.8088
G1 X93.767 Y147.128 E0.8320
G1 X95.011 Y148.372 E0.8920
G1 X95.690 Y148.372 E0.9152
G1 X94.446 Y147.128 E0.9752
G1 X95.125 Y147.128 E0.9984
G1 X96.369 Y148.372 E1.0584
G1 X97.047 Y148.372 E1.0816
G1 X95.803 Y147.128 E1.1416
G1 X96.482 Y147.128 E1.1648
G1 X97.726 Y148.372 E1.2248
G1 X98.405 Y148.372 E1.2480
G1 X97.161 Y147.128 E1.3080
G1 X97.840 Y147.128 E1.3312
G1 X99.084 Y148.372 E1.3912
G1 X99.763 Y148.372 E1.4144
G1 X98.519 Y147.128 E1.4744
G1 X99.197 Y147.128 E1.4976
G1 X100.441 Y148.372 E1.5576
G1 X101.120 Y148.372 E1.5808
G1 X99.876 Y147.128 E1.6408
G1 X100.555 Y147.128 E1.6640
G1 X101.799 Y148.372 E1.7240
G1 X102.478 Y148.372 E1.7472
G1 X101.234 Y147.128 E1.8072
G1 X101.913 Y147.128 E1.8304
G1 X103.157 Y148.372 E1.8904
G1 X103.836 Y148.372 E1.9136
G1 X102.592 Y147.128 E1.9736
G1 X103.270 Y147.128 E1.9968
G1 X104.514 Y148.372 E2.0568
G1 X105.193 Y148.372 E2.0800
G1 X103.949 Y147.128 E2.1400
G1 X104.628 Y147.128 E2.1632
G1 X105.872 Y148.372 E2.2232
G1 X106.551 Y148.372 E2.2464
G1 X105.307 Y147.128 E2.3064
