; G-Code generated by Simplify3D(R) Version 3.0.0
; oct. 22, 2016 at 10:37:16 
; Settings Summary
;   processName,Process1
;   applyToModels,x-axis-belt-tensioner
;   profileName,P3Steel
;   profileVersion,2016-10-22 22:36:17
;   baseProfile,Default
;   printMaterial,PLA
;   printQuality,Medium
;   printExtruders,
;   extruderName,Primary Extruder
;   extruderToolheadNumber,0
;   extruderDiameter,0.4
;   extruderAutoWidth,1
;   extruderWidth,0.48
;   extrusionMultiplier,1.05
;   extruderUseRetract,1
;   extruderRetractionDistance,1.8
;   extruderExtraRestartDistance,0
;   extruderRetractionZLift,0
;   extruderRetractionSpeed,3900
;   extruderUseCoasting,0
;   extruderCoastingDistance,0.2
;   extruderUseWipe,0
;   extruderWipeDistance,5
;   primaryExtruder,0
;   layerHeight,0.18
;   topSolidLayers,3
;   bottomSolidLayers,3
;   perimeterOutlines,2
;   printPerimetersInsideOut,1
;   startPointOption,2
;   startPointOriginX,0
;   startPointOriginY,0
;   startPointOriginZ,300
;   sequentialIslands,0
;   spiralVaseMode,0
;   firstLayerHeightPercentage,90
;   firstLayerWidthPercentage,100
;   firstLayerUnderspeed,0.5
;   useRaft,0
;   raftExtruder,0
;   raftLayers,3
;   raftOffset,3
;   raftSeparationDistance,0.14
;   raftInfill,85
;   disableRaftBaseLayers,0
;   useSkirt,1
;   skirtExtruder,0
;   skirtLayers,1
;   skirtOutlines,2
;   skirtOffset,6
;   usePrimePillar,0
;   primePillarExtruder,999
;   primePillarWidth,12
;   primePillarLocation,7
;   primePillarSpeedMultiplier,1
;   useOozeShield,0
;   oozeShieldExtruder,999
;   oozeShieldOffset,2
;   oozeShieldOutlines,1
;   oozeShieldSidewallShape,1
;   oozeShieldSidewallAngle,30
;   oozeShieldSpeedMultiplier,1
;   infillExtruder,0
;   internalInfillPattern,Rectilinear
;   externalInfillPattern,Rectilinear
;   infillPercentage,60
;   outlineOverlapPercentage,15
;   infillExtrusionWidthPercentage,100
;   minInfillLength,3
;   infillLayerInterval,1
;   infillAngles,45,-45
;   overlapInfillAngles,0
;   generateSupport,0
;   supportExtruder,0
;   supportInfillPercentage,30
;   supportExtraInflation,0
;   denseSupportLayers,0
;   denseSupportInfillPercentage,70
;   supportLayerInterval,1
;   supportHorizontalPartOffset,0.3
;   supportUpperSeparationLayers,1
;   supportLowerSeparationLayers,1
;   supportType,0
;   supportGridSpacing,4
;   maxOverhangAngle,45
;   supportAngles,0
;   temperatureName,Primary Extruder,Heated Bed
;   temperatureNumber,0,1
;   temperatureSetpointCount,1,1
;   temperatureSetpointLayers,1,1
;   temperatureSetpointTemperatures,198,50
;   temperatureStabilizeAtStartup,1,1
;   temperatureHeatedBed,0,1
;   temperatureRelayBetweenLayers,0,0
;   temperatureRelayBetweenLoops,0,0
;   fanLayers,1,2
;   fanSpeeds,0,100
;   blipFanToFullPower,0
;   adjustSpeedForCooling,1
;   minSpeedLayerTime,15
;   minCoolingSpeedSlowdown,20
;   increaseFanForCooling,0
;   minFanLayerTime,45
;   maxCoolingFanSpeed,100
;   increaseFanForBridging,0
;   bridgingFanSpeed,100
;   use5D,1
;   relativeEdistances,0
;   allowEaxisZeroing,1
;   independentExtruderAxes,0
;   includeM10123,0
;   stickySupport,1
;   applyToolheadOffsets,0
;   gcodeXoffset,0
;   gcodeYoffset,0
;   gcodeZoffset,0
;   overrideMachineDefinition,1
;   machineTypeOverride,0
;   strokeXoverride,192
;   strokeYoverride,185
;   strokeZoverride,165
;   originOffsetXoverride,0
;   originOffsetYoverride,0
;   originOffsetZoverride,0
;   homeXdirOverride,-1
;   homeYdirOverride,-1
;   homeZdirOverride,-1
;   flipXoverride,1
;   flipYoverride,-1
;   flipZoverride,1
;   toolheadOffsets,0,0|0,0|0,0|0,0|0,0|0,0
;   overrideFirmwareConfiguration,0
;   firmwareTypeOverride,RepRap (Marlin/Repetier/Sprinter)
;   GPXconfigOverride,r2
;   baudRateOverride,115200
;   overridePrinterModels,0
;   printerModelsOverride
;   startingGcode,G28 ; home all axes
;   layerChangeGcode,
;   retractionGcode,
;   toolChangeGcode,
;   endingGcode,G28 Y0 X0 ,M104 S0 ; turn off extruder,M140 S0 ; turn off bed,M84 ; disable motors,M107 ; turn off fan
;   createX3G,0
;   celebration,0
;   celebrationSong,Random Song
;   createMB5G,0
;   postProcessing,
;   defaultSpeed,3900
;   outlineUnderspeed,0.7
;   solidInfillUnderspeed,0.8
;   supportUnderspeed,0.8
;   rapidXYspeed,4200
;   rapidZspeed,900
;   minBridgingArea,50
;   bridgingExtraInflation,0
;   bridgingExtrusionMultiplier,1
;   bridgingSpeedMultiplier,1
;   filamentDiameter,1.75
;   filamentPricePerKg,16
;   filamentDensity,1.25
;   useMinPrintHeight,0
;   minPrintHeight,0
;   useMaxPrintHeight,0
;   maxPrintHeight,0
;   useDiaphragm,0
;   diaphragmLayerInterval,20
;   robustSlicing,1
;   mergeAllIntoSolid,0
;   onlyRetractWhenCrossingOutline,1
;   retractBetweenLayers,1
;   useRetractionMinTravel,0
;   retractionMinTravel,3
;   retractWhileWiping,0
;   onlyWipeOutlines,1
;   avoidCrossingOutline,0
;   maxMovementDetourFactor,3
;   toolChangeRetractionDistance,12
;   toolChangeExtraRestartDistance,-0.5
;   toolChangeRetractionSpeed,600
;   allowThinWallGapFill,1
;   thinWallAllowedOverlapPercentage,10
;   horizontalSizeCompensation,0
G90
M82
M106 S0
M140 S50
M190 S50
M104 S198 T0
M109 S198 T0
G28 ; home all axes
G92 E0
G1 E-1.8000 F3900
G1 Z0.162 F900
; layer 1, Z = 0.162
T0
; tool H0.180 W0.480
; skirt
G1 X79.107 Y76.390 F4200
G1 E0.0000 F1170
G92 E0
G1 X79.371 Y76.280 E0.0108 F1950
G1 X112.629 Y76.280 E1.2652
G1 X112.893 Y76.390 E1.2760
G1 X116.610 Y80.107 E1.4742
G1 X116.720 Y80.371 E1.4850
G1 X116.720 Y104.629 E2.3999
G1 X116.610 Y104.893 E2.4107
G1 X112.893 Y108.610 E2.6090
G1 X112.629 Y108.720 E2.6198
G1 X79.371 Y108.720 E3.8742
G1 X79.107 Y108.610 E3.8850
G1 X75.390 Y104.893 E4.0833
G1 X75.280 Y104.629 E4.0941
G1 X75.280 Y80.371 E5.0090
G1 X75.390 Y80.107 E5.0198
G1 X79.107 Y76.390 E5.2181
G1 X79.379 Y76.797 F4200
G92 E0
G1 X79.467 Y76.760 E0.0036 F1950
G1 X112.533 Y76.760 E1.2508
G1 X112.621 Y76.797 E1.2544
G1 X116.203 Y80.379 E1.4454
G1 X116.240 Y80.467 E1.4490
G1 X116.240 Y104.533 E2.3567
G1 X116.203 Y104.621 E2.3603
G1 X112.621 Y108.203 E2.5514
G1 X112.533 Y108.240 E2.5550
G1 X79.467 Y108.240 E3.8022
G1 X79.379 Y108.203 E3.8058
G1 X75.797 Y104.621 E3.9968
G1 X75.760 Y104.533 E4.0004
G1 X75.760 Y80.467 E4.9081
G1 X75.797 Y80.379 E4.9117
G1 X79.379 Y76.797 E5.1028
G92 E0
G1 E-1.8000 F3900
; inner perimeter
G1 X82.720 Y83.720 F4200
G1 E0.0000 F3900
G92 E0
G1 X109.280 Y83.720 E1.0018 F1657
G1 X109.280 Y101.280 E1.6641
G1 X82.720 Y101.280 E2.6658
G1 X82.720 Y83.720 E3.3281
; outer perimeter
G1 X82.240 Y83.240 F4200
G92 E0
G1 X109.760 Y83.240 E1.0380 F1365
G1 X109.760 Y101.760 E1.7365
G1 X82.240 Y101.760 E2.7745
G1 X82.240 Y83.240 E3.4730
; inner perimeter
G1 X85.780 Y85.780 F4200
G92 E0
G1 X85.780 Y99.220 E0.5069 F1657
G1 X106.220 Y99.220 E1.2779
G1 X106.220 Y85.780 E1.7848
G1 X85.780 Y85.780 E2.5557
; outer perimeter
G1 X86.260 Y86.260 F4200
G92 E0
G1 X86.260 Y98.740 E0.4707 F1365
G1 X105.740 Y98.740 E1.2054
G1 X105.740 Y86.260 E1.6761
G1 X86.260 Y86.260 E2.4109
; solid layer
G1 X86.157 Y85.372 F4200
G92 E0
G1 X87.401 Y84.128 E0.0664 F1560
G1 X88.080 Y84.128 E0.0920
G1 X86.836 Y85.372 E0.1583
G1 X87.515 Y85.372 E0.1839
G1 X88.759 Y84.128 E0.2503
G1 X89.438 Y84.128 E0.2759
G1 X88.194 Y85.372 E0.3422
G1 X88.873 Y85.372 E0.3678
G1 X90.117 Y84.128 E0.4342
G1 X90.796 Y84.128 E0.4598
G1 X89.552 Y85.372 E0.5261
G1 X90.230 Y85.372 E0.5517
G1 X91.474 Y84.128 E0.6181
G1 X92.153 Y84.128 E0.6437
G1 X90.909 Y85.372 E0.7101
G1 X91.588 Y85.372 E0.7357
G1 X92.832 Y84.128 E0.8020
G1 X93.511 Y84.128 E0.8276
G1 X92.267 Y85.372 E0.8940
G1 X92.946 Y85.372 E0.9196
G1 X94.190 Y84.128 E0.9859
G1 X94.869 Y84.128 E1.0115
G1 X93.625 Y85.372 E1.0779
G1 X94.303 Y85.372 E1.1035
G1 X95.547 Y84.128 E1.1699
G1 X96.226 Y84.128 E1.1955
G1 X94.982 Y85.372 E1.2618
G1 X95.661 Y85.372 E1.2874
G1 X96.905 Y84.128 E1.3538
G1 X97.584 Y84.128 E1.3794
G1 X96.340 Y85.372 E1.4457
G1 X97.019 Y85.372 E1.4713
G1 X98.263 Y84.128 E1.5377
G1 X98.941 Y84.128 E1.5633
G1 X97.697 Y85.372 E1.6296
G1 X98.376 Y85.372 E1.6552
G1 X99.620 Y84.128 E1.7216
G1 X100.299 Y84.128 E1.7472
G1 X99.055 Y85.372 E1.8136
G1 X99.734 Y85.372 E1.8392
G1 X100.978 Y84.128 E1.9055
G1 X101.657 Y84.128 E1.9311
G1 X100.413 Y85.372 E1.9975
G1 X101.092 Y85.372 E2.0231
G1 X102.336 Y84.128 E2.0894
G1 X103.014 Y84.128 E2.1150
G1 X101.770 Y85.372 E2.1814
G1 X102.449 Y85.372 E2.2070
G1 X103.693 Y84.128 E2.2733
G1 X104.372 Y84.128 E2.2989
G1 X103.128 Y85.372 E2.3653
G1 X103.807 Y85.372 E2.3909
G1 X105.051 Y84.128 E2.4573
G1 X105.730 Y84.128 E2.4829
G1 X104.486 Y85.372 E2.5492
G1 X105.164 Y85.372 E2.5748
G1 X106.408 Y84.128 E2.6412
G1 X107.087 Y84.128 E2.6668
G1 X105.843 Y85.372 E2.7331
G1 X106.522 Y85.372 E2.7587
G1 X107.766 Y84.128 E2.8251
G1 X108.445 Y84.128 E2.8507
G1 X106.628 Y85.945 E2.9476
G1 X106.628 Y86.624 E2.9732
G1 X108.872 Y84.380 E3.0929
G1 X108.872 Y85.059 E3.1185
G1 X106.628 Y87.303 E3.2382
G1 X106.628 Y87.981 E3.2638
G1 X108.872 Y85.737 E3.3835
G1 X108.872 Y86.416 E3.4091
G1 X106.628 Y88.660 E3.5288
G1 X106.628 Y89.339 E3.5544
G1 X108.872 Y87.095 E3.6741
G1 X108.872 Y87.774 E3.6997
G1 X106.628 Y90.018 E3.8194
G1 X106.628 Y90.697 E3.8450
G1 X108.872 Y88.453 E3.9647
G1 X108.872 Y89.132 E3.9903
G1 X106.628 Y91.376 E4.1100
G1 X106.628 Y92.054 E4.1356
G1 X108.872 Y89.810 E4.2553
G1 X108.872 Y90.489 E4.2809
G1 X106.628 Y92.733 E4.4006
G1 X106.628 Y93.412 E4.4262
G1 X108.872 Y91.168 E4.5459
G1 X108.872 Y91.847 E4.5715
G1 X106.628 Y94.091 E4.6912
G1 X106.628 Y94.770 E4.7168
G1 X108.872 Y92.526 E4.8365
G1 X108.872 Y93.204 E4.8621
G1 X106.628 Y95.448 E4.9818
G1 X106.628 Y96.127 E5.0074
G1 X108.872 Y93.883 E5.1271
G1 X108.872 Y94.562 E5.1527
G1 X106.628 Y96.806 E5.2724
G1 X106.628 Y97.485 E5.2980
G1 X108.872 Y95.241 E5.4177
G1 X108.872 Y95.920 E5.4433
G1 X106.628 Y98.164 E5.5630
G1 X106.628 Y98.843 E5.5886
G1 X108.872 Y96.599 E5.7083
G1 X108.872 Y97.277 E5.7339
G1 X106.628 Y99.521 E5.8536
G1 X108.872 Y100.672 F4200
G92 E0
G1 X108.672 Y100.872 E0.0107 F1560
G1 X107.993 Y100.872 E0.0363
G1 X108.872 Y99.993 E0.0832
G1 X108.872 Y99.314 E0.1088
G1 X107.314 Y100.872 E0.1919
G1 X106.635 Y100.872 E0.2175
G1 X108.872 Y98.635 E0.3368
G1 X108.872 Y97.956 E0.3624
G1 X105.956 Y100.872 E0.5180
G1 X105.277 Y100.872 E0.5436
G1 X106.521 Y99.628 E0.6099
G1 X105.843 Y99.628 E0.6355
G1 X104.599 Y100.872 E0.7019
G1 X103.920 Y100.872 E0.7275
G1 X105.164 Y99.628 E0.7938
G1 X104.485 Y99.628 E0.8194
G1 X103.241 Y100.872 E0.8858
G1 X102.562 Y100.872 E0.9114
G1 X103.806 Y99.628 E0.9778
G1 X103.127 Y99.628 E1.0034
G1 X101.883 Y100.872 E1.0697
G1 X101.204 Y100.872 E1.0953
G1 X102.448 Y99.628 E1.1617
G1 X101.770 Y99.628 E1.1873
G1 X100.526 Y100.872 E1.2536
G1 X99.847 Y100.872 E1.2792
G1 X101.091 Y99.628 E1.3456
G1 X100.412 Y99.628 E1.3712
G1 X99.168 Y100.872 E1.4375
G1 X98.489 Y100.872 E1.4631
G1 X99.733 Y99.628 E1.5295
G1 X99.054 Y99.628 E1.5551
G1 X97.810 Y100.872 E1.6215
G1 X97.132 Y100.872 E1.6471
G1 X98.376 Y99.628 E1.7134
G1 X97.697 Y99.628 E1.7390
G1 X96.453 Y100.872 E1.8054
G1 X95.774 Y100.872 E1.8310
G1 X97.018 Y99.628 E1.8973
G1 X96.339 Y99.628 E1.9229
G1 X95.095 Y100.872 E1.9893
G1 X94.416 Y100.872 E2.0149
G1 X95.660 Y99.628 E2.0812
G1 X94.981 Y99.628 E2.1069
G1 X93.737 Y100.872 E2.1732
G1 X93.059 Y100.872 E2.1988
G1 X94.303 Y99.628 E2.2652
G1 X93.624 Y99.628 E2.2908
G1 X92.380 Y100.872 E2.3571
G1 X91.701 Y100.872 E2.3827
G1 X92.945 Y99.628 E2.4491
G1 X92.266 Y99.628 E2.4747
G1 X91.022 Y100.872 E2.5410
G1 X90.343 Y100.872 E2.5666
G1 X91.587 Y99.628 E2.6330
G1 X90.908 Y99.628 E2.6586
G1 X89.664 Y100.872 E2.7250
G1 X88.986 Y100.872 E2.7506
G1 X90.230 Y99.628 E2.8169
G1 X89.551 Y99.628 E2.8425
G1 X88.307 Y100.872 E2.9089
G1 X87.628 Y100.872 E2.9345
G1 X88.872 Y99.628 E3.0008
G1 X88.193 Y99.628 E3.0264
G1 X86.949 Y100.872 E3.0928
G1 X86.270 Y100.872 E3.1184
G1 X87.514 Y99.628 E3.1847
G1 X86.836 Y99.628 E3.2103
G1 X85.592 Y100.872 E3.2767
G1 X84.913 Y100.872 E3.3023
G1 X86.157 Y99.628 E3.3687
G1 X85.478 Y99.628 E3.3943
G1 X84.234 Y100.872 E3.4606
G1 X83.555 Y100.872 E3.4862
G1 X85.372 Y99.055 E3.5831
G1 X85.372 Y98.376 E3.6087
G1 X83.128 Y100.620 E3.7284
G1 X83.128 Y99.941 E3.7540
G1 X85.372 Y97.697 E3.8737
G1 X85.372 Y97.019 E3.8993
G1 X83.128 Y99.263 E4.0190
G1 X83.128 Y98.584 E4.0446
G1 X85.372 Y96.340 E4.1643
G1 X85.372 Y95.661 E4.1899
G1 X83.128 Y97.905 E4.3096
G1 X83.128 Y97.226 E4.3352
G1 X85.372 Y94.982 E4.4549
G1 X85.372 Y94.303 E4.4805
G1 X83.128 Y96.547 E4.6002
G1 X83.128 Y95.869 E4.6258
G1 X85.372 Y93.625 E4.7455
G1 X85.372 Y92.946 E4.7711
G1 X83.128 Y95.190 E4.8908
G1 X83.128 Y94.511 E4.9164
G1 X85.372 Y92.267 E5.0361
G1 X85.372 Y91.588 E5.0617
G1 X83.128 Y93.832 E5.1814
G1 X83.128 Y93.153 E5.2070
G1 X85.372 Y90.909 E5.3267
G1 X85.372 Y90.230 E5.3523
G1 X83.128 Y92.474 E5.4720
G1 X83.128 Y91.796 E5.4976
G1 X85.372 Y89.552 E5.6173
G1 X85.372 Y88.873 E5.6429
G1 X83.128 Y91.117 E5.7626
G1 X83.128 Y90.438 E5.7882
G1 X85.372 Y88.194 E5.9079
G1 X85.372 Y87.515 E5.9335
G1 X83.128 Y89.759 E6.0532
G1 X83.128 Y89.080 E6.0788
G1 X85.372 Y86.836 E6.1985
G1 X85.372 Y86.157 E6.2241
G1 X83.128 Y88.401 E6.3438
G1 X83.128 Y87.723 E6.3694
G1 X85.372 Y85.479 E6.4891
G1 X85.372 Y85.372 E6.4931
G1 X85.479 Y85.372 E6.4971
G1 X86.723 Y84.128 E6.5635
G1 X86.044 Y84.128 E6.5891
G1 X83.128 Y87.044 E6.7446
G1 X83.128 Y86.365 E6.7702
G1 X85.365 Y84.128 E6.8895
G1 X84.686 Y84.128 E6.9151
G1 X83.128 Y85.686 E6.9983
G1 X83.128 Y85.007 E7.0239
G1 X84.007 Y84.128 E7.0708
G1 X83.329 Y84.128 E7.0964
G1 X83.128 Y84.329 E7.1071
G92 E0
G1 E-1.8000 F3900
; layer 2, Z = 0.342
M106 S255
; inner perimeter
G1 X82.720 Y83.720 F4200
G1 Z0.342 F900
G1 E0.0000 F3900
G92 E0
G1 X109.280 Y83.720 E1.0018 F2842
G1 X109.280 Y101.280 E1.6641
G1 X82.720 Y101.280 E2.6658
G1 X82.720 Y83.720 E3.3281
; outer perimeter
G1 X82.240 Y83.240 F4200
G92 E0
G1 X109.760 Y83.240 E1.0380 F2341
G1 X109.760 Y101.760 E1.7365
G1 X82.240 Y101.760 E2.7745
G1 X82.240 Y83.240 E3.4730
; inner perimeter
G1 X85.780 Y85.780 F4200
G92 E0
G1 X85.780 Y99.220 E0.5069 F2842
G1 X106.220 Y99.220 E1.2779
G1 X106.220 Y85.780 E1.7848
G1 X85.780 Y85.780 E2.5557
; outer perimeter
G1 X86.260 Y86.260 F4200
G92 E0
G1 X86.260 Y98.740 E0.4707 F2341
G1 X105.740 Y98.740 E1.2054
G1 X105.740 Y86.260 E1.6761
G1 X86.260 Y86.260 E2.4109
; solid layer
G1 X85.479 Y99.628 F4200
G92 E0
G1 X86.723 Y100.872 E0.0664 F2675
G1 X87.401 Y100.872 E0.0920
G1 X86.157 Y99.628 E0.1583
G1 X86.836 Y99.628 E0.1839
G1 X88.080 Y100.872 E0.2503
G1 X88.759 Y100.872 E0.2759
G1 X87.515 Y99.628 E0.3422
G1 X88.194 Y99.628 E0.3678
G1 X89.438 Y100.872 E0.4342
G1 X90.117 Y100.872 E0.4598
G1 X88.873 Y99.628 E0.5261
G1 X89.552 Y99.628 E0.5517
G1 X90.796 Y100.872 E0.6181
G1 X91.474 Y100.872 E0.6437
G1 X90.230 Y99.628 E0.7101
G1 X90.909 Y99.628 E0.7357
G1 X92.153 Y100.872 E0.8020
G1 X92.832 Y100.872 E0.8276
G1 X91.588 Y99.628 E0.8940
G1 X92.267 Y99.628 E0.9196
G1 X93.511 Y100.872 E0.9859
G1 X94.190 Y100.872 E1.0115
G1 X92.946 Y99.628 E1.0779
G1 X93.625 Y99.628 E1.1035
G1 X94.869 Y100.872 E1.1699
G1 X95.547 Y100.872 E1.1955
G1 X94.303 Y99.628 E1.2618
G1 X94.982 Y99.628 E1.2874
G1 X96.226 Y100.872 E1.3538
G1 X96.905 Y100.872 E1.3794
G1 X95.661 Y99.628 E1.4457
G1 X96.340 Y99.628 E1.4713
G1 X97.584 Y100.872 E1.5377
G1 X98.263 Y100.872 E1.5633
G1 X97.019 Y99.628 E1.6296
G1 X97.697 Y99.628 E1.6552
G1 X98.941 Y100.872 E1.7216
G1 X99.620 Y100.872 E1.7472
G1 X98.376 Y99.628 E1.8136
G1 X99.055 Y99.628 E1.8392
G1 X100.299 Y100.872 E1.9055
G1 X100.978 Y100.872 E1.9311
G1 X99.734 Y99.628 E1.9975
G1 X100.413 Y99.628 E2.0231
G1 X101.657 Y100.872 E2.0894
G1 X102.336 Y100.872 E2.1150
G1 X101.092 Y99.628 E2.1814
G1 X101.770 Y99.628 E2.2070
G1 X103.014 Y100.872 E2.2733
G1 X103.693 Y100.872 E2.2989
G1 X102.449 Y99.628 E2.3653
G1 X103.128 Y99.628 E2.3909
G1 X104.372 Y100.872 E2.4573
G1 X105.051 Y100.872 E2.4829
G1 X103.807 Y99.628 E2.5492
G1 X104.486 Y99.628 E2.5748
G1 X105.730 Y100.872 E2.6412
G1 X106.408 Y100.872 E2.6668
G1 X105.164 Y99.628 E2.7331
G1 X105.843 Y99.628 E2.7587
G1 X107.087 Y100.872 E2.8251
G1 X107.766 Y100.872 E2.8507
G1 X106.522 Y99.628 E2.9171
G1 X106.628 Y99.628 E2.9210
